svg/calculator.svg

<svg xmlns="http://www.w3.org/2000/svg" viewBox="0 0 32 32"><path style="text-indent:0;text-align:start;line-height:normal;text-transform:none;block-progression:tb;-inkscape-font-specification:Bitstream Vera Sans" d="M6 3v26h20V3H6zm2 2h16v22H8V5zm2 2v6h12V7H10zm2 2h8v2h-8V9zm-1 6v2h2v-2h-2zm4 0v2h2v-2h-2zm4 0v2h2v-2h-2zm-8 4v2h2v-2h-2zm4 0v2h2v-2h-2zm4 0v2h2v-2h-2zm-8 4v2h2v-2h-2zm4 0v2h2v-2h-2zm4 0v2h2v-2h-2z"/></svg>

<svg xmlns="http://www.w3.org/2000/svg" viewBox="0 0 32 32" enable-background="new 0 0 32 32"><path d="M 6 3 L 6 4 L 6 28 L 6 29 L 7 29 L 25 29 L 26 29 L 26 28 L 26 4 L 26 3 L 25 3 L 7 3 L 6 3 z M 8 5 L 24 5 L 24 27 L 8 27 L 8 5 z M 10 7 L 10 8 L 10 12 L 10 13 L 11 13 L 21 13 L 22 13 L 22 12 L 22 8 L 22 7 L 21 7 L 11 7 L 10 7 z M 12 9 L 20 9 L 20 11 L 12 11 L 12 9 z M 11 15 L 11 17 L 13 17 L 13 15 L 11 15 z M 15 15 L 15 17 L 17 17 L 17 15 L 15 15 z M 19 15 L 19 17 L 21 17 L 21 15 L 19 15 z M 11 19 L 11 21 L 13 21 L 13 19 L 11 19 z M 15 19 L 15 21 L 17 21 L 17 19 L 15 19 z M 19 19 L 19 21 L 21 21 L 21 19 L 19 19 z M 11 23 L 11 25 L 13 25 L 13 23 L 11 23 z M 15 23 L 15 25 L 17 25 L 17 23 L 15 23 z M 19 23 L 19 25 L 21 25 L 21 23 L 19 23 z"/></svg>
